; generated by PrusaSlicer 2.4.0+win64 on 2023-04-12 at 13:13:05 UTC

; 

; external perimeters extrusion width = 0.60mm
; perimeters extrusion width = 0.50mm
; infill extrusion width = 0.50mm
; solid infill extrusion width = 0.50mm
; top infill extrusion width = 0.45mm
; first layer extrusion width = 0.42mm

M73 P0 R150
M73 Q0 S150
M201 X1000 Y1000 Z200 E5000 ; sets maximum accelerations, mm/sec^2
M203 X200 Y200 Z12 E120 ; sets maximum feedrates, mm/sec
M204 P1250 R1250 T1250 ; sets acceleration (P, T) and retract acceleration (R), mm/sec^2
M205 X8.00 Y8.00 Z0.40 E4.50 ; sets the jerk limits, mm/sec
M205 S0 T0 ; sets the minimum extruding and travel feed rate, mm/sec
M107
;TYPE:Custom
M862.3 P "MK3S" ; printer model check
M862.1 P0.4 ; nozzle diameter check
M115 U3.10.1 ; tell printer latest fw version
G90 ; use absolute coordinates
M83 ; extruder relative mode
M104 S215 ; set extruder temp
M140 S60 ; set bed temp
M190 S60 ; wait for bed temp
M109 S215 ; wait for extruder temp
G28 W ; home all without mesh bed level
G80 ; mesh bed leveling
G1 Z0.2 F720
G1 Y-3 F1000 ; go outside print area
G92 E0
G1 X60 E9 F1000 ; intro line
G1 X100 E12.5 F1000 ; intro line
G92 E0
M221 S95

; Don't change E values below. Excessive value can damage the printer.

M907 E538 ; set extruder motor current
G21 ; set units to millimeters
G90 ; use absolute coordinates
M83 ; use relative distances for extrusion
M900 K0.05 ; Filament gcode LA 1.5
M900 K30 ; Filament gcode LA 1.0
M107
;LAYER_CHANGE
;Z:0.2
;HEIGHT:0.2
;BEFORE_LAYER_CHANGE
G92 E0.0
;0.2


G1 E-.8 F2100
G1 Z.4 F720
;AFTER_LAYER_CHANGE
;0.2
G1 X52.312 Y41.748 F10800
G1 Z.2 F720
G1 E.8 F2100
M204 S800
;TYPE:Skirt/Brim
;WIDTH:0.42
G1 F1200
G1 X53.358 Y40.872 E.04278
G1 X54.298 Y40.678 E.03008
G1 X191.298 Y40.678 E4.29554
G1 X192.605 Y41.07 E.04278
G1 X193.481 Y42.115 E.04278
G1 X193.675 Y43.055 E.03008
G1 X193.675 Y187.055 E4.51502
G1 X193.283 Y188.362 E.04278
G1 X192.237 Y189.239 E.04278
G1 X191.298 Y189.432 E.03008
G1 X54.298 Y189.432 E4.29554
G1 X52.991 Y189.041 E.04278
M73 P0 R149
G1 X52.114 Y187.995 E.04278
G1 X51.921 Y187.055 E.03008
G1 X51.921 Y43.055 E4.51502
G1 X52.295 Y41.806 E.0409
M204 S1000
; printing object Cover.stl id:0 copy 0
;WIPE_START
G1 F8640
G1 X53.358 Y40.872 E-.32671
G1 X54.298 Y40.678 E-.22155
G1 X55.215 Y40.678 E-.21174
;WIPE_END
G1 E-.04 F2100
G1 Z.6 F720
G1 X55.485 Y43.842 F10800
G1 Z.2 F720
G1 E.8 F2100
M204 S800
;TYPE:Perimeter
G1 F1200
G1 X190.511 Y43.842 E4.23364
G1 X190.511 Y150.298 E3.33784
M73 Q0 S149
G1 X190.204 Y150.309 E.00962
G1 X189.117 Y150.435 E.03432
G1 X188.042 Y150.643 E.03432
G1 X186.987 Y150.933 E.03432
G1 X185.957 Y151.303 E.03432
G1 X184.958 Y151.751 E.03432
G1 X184.326 Y152.095 E.02256
G1 X183.996 Y152.274 E.01175
G1 X183.078 Y152.869 E.03432
G1 X182.207 Y153.532 E.03432
G1 X181.39 Y154.261 E.03432
G1 X180.631 Y155.049 E.03432
G1 X180.173 Y155.604 E.02256
G1 X179.935 Y155.894 E.01175
G1 X179.305 Y156.789 E.03432
G1 X178.746 Y157.73 E.03432
G1 X178.26 Y158.71 E.03432
G1 X177.851 Y159.726 E.03432
G1 X177.521 Y160.769 E.03432
G1 X177.271 Y161.835 E.03432
G1 X177.104 Y162.917 E.03432
G1 X177.021 Y164.008 E.03432
G1 X177.021 Y165.103 E.03434
G1 X177.109 Y166.222 E.0352
G1 X177.271 Y167.275 E.03341
G1 X177.521 Y168.341 E.03432
G1 X177.851 Y169.385 E.03432
G1 X178.26 Y170.4 E.03432
G1 X178.746 Y171.381 E.03432
G1 X179.305 Y172.321 E.03432
G1 X179.935 Y173.217 E.03432
G1 X180.631 Y174.061 E.03432
G1 X181.39 Y174.85 E.03432
G1 X182.207 Y175.578 E.03432
G1 X183.078 Y176.241 E.03432
G1 X183.996 Y176.836 E.03432
G1 X184.958 Y177.359 E.03432
G1 X185.957 Y177.807 E.03432
G1 X186.987 Y178.177 E.03432
G1 X188.042 Y178.467 E.03432
G1 X189.117 Y178.675 E.03432
G1 X190.204 Y178.801 E.03432
G1 X190.511 Y178.813 E.00962
G1 X190.511 Y186.268 E.23376
G1 X55.085 Y186.268 E4.24618
G1 X55.085 Y178.813 E.23376
G1 X55.391 Y178.801 E.00962
G1 X56.479 Y178.675 E.03432
G1 X57.553 Y178.467 E.03432
G1 X58.609 Y178.177 E.03432
G1 X59.639 Y177.807 E.03432
G1 X60.637 Y177.359 E.03432
G1 X61.599 Y176.836 E.03432
G1 X62.518 Y176.241 E.03432
G1 X63.388 Y175.578 E.03432
G1 X64.205 Y174.85 E.03432
G1 X64.964 Y174.061 E.03432
G1 X65.661 Y173.217 E.03432
G1 X65.876 Y172.91 E.01175
G1 X66.29 Y172.321 E.02256
G1 X66.85 Y171.381 E.03432
G1 X67.335 Y170.4 E.03432
G1 X67.744 Y169.385 E.03432
G1 X68.075 Y168.341 E.03432
G1 X68.324 Y167.275 E.03432
G1 X68.491 Y166.194 E.03432
G1 X68.575 Y165.102 E.03432
G1 X68.575 Y164.008 E.03432
G1 X68.491 Y162.917 E.03432
G1 X68.324 Y161.835 E.03432
G1 X68.075 Y160.769 E.03432
G1 X67.744 Y159.726 E.03432
G1 X67.335 Y158.71 E.03432
G1 X66.85 Y157.73 E.03432
G1 X66.29 Y156.789 E.03432
G1 X65.661 Y155.894 E.03432
G1 X64.964 Y155.049 E.03432
G1 X64.205 Y154.261 E.03432
G1 X63.925 Y154.011 E.01175
G1 X63.388 Y153.532 E.02256
G1 X62.518 Y152.869 E.03432
G1 X61.599 Y152.274 E.03432
G1 X60.637 Y151.751 E.03432
G1 X59.639 Y151.303 E.03432
G1 X58.609 Y150.933 E.03432
G1 X57.553 Y150.643 E.03432
G1 X56.479 Y150.435 E.03432
G1 X55.391 Y150.309 E.03432
G1 X55.085 Y150.298 E.00962
G1 X55.085 Y43.842 E3.33784
G1 X55.425 Y43.842 E.01066
M204 S1000
G1 X54.708 Y43.465 F10800
M204 S800
;TYPE:External perimeter
G1 F1200
G1 X190.888 Y43.465 E4.26983
G1 X190.888 Y150.661 E3.36104
G1 X190.233 Y150.686 E.02055
G1 X189.174 Y150.808 E.03341
G1 X188.128 Y151.011 E.03341
G1 X187.101 Y151.293 E.03341
G1 X186.098 Y151.653 E.03341
G1 X185.125 Y152.089 E.03341
G1 X184.189 Y152.598 E.03341
G1 X183.295 Y153.177 E.03341
G1 X182.447 Y153.823 E.03341
G1 X181.652 Y154.532 E.03341
G1 X180.913 Y155.3 E.03341
G1 X180.464 Y155.844 E.02211
G1 X180.235 Y156.122 E.0113
G1 X179.622 Y156.994 E.03341
G1 X179.077 Y157.91 E.03341
G1 X178.605 Y158.865 E.03341
G1 X178.206 Y159.853 E.03341
G1 X177.885 Y160.869 E.03341
G1 X177.642 Y161.907 E.03341
G1 X177.479 Y162.96 E.03341
G1 X177.398 Y164.022 E.03341
G1 X177.398 Y165.088 E.03342
G1 X177.484 Y166.179 E.0343
G1 X177.642 Y167.204 E.03252
G1 X177.885 Y168.241 E.03341
G1 X178.206 Y169.257 E.03341
G1 X178.605 Y170.245 E.03341
G1 X179.077 Y171.2 E.03341
G1 X179.622 Y172.116 E.03341
G1 X180.235 Y172.988 E.03341
G1 X180.913 Y173.81 E.03341
G1 X181.652 Y174.578 E.03341
G1 X182.447 Y175.287 E.03341
G1 X183.295 Y175.933 E.03341
G1 X184.189 Y176.512 E.03341
G1 X185.125 Y177.021 E.03341
G1 X186.098 Y177.457 E.03341
G1 X187.101 Y177.817 E.03341
G1 X188.128 Y178.1 E.03341
G1 X189.174 Y178.302 E.03341
G1 X190.233 Y178.425 E.03341
G1 X190.888 Y178.45 E.02055
G1 X190.888 Y186.645 E.25696
G1 X54.708 Y186.645 E4.26983
G1 X54.708 Y178.45 E.25696
M73 P0 R148
G1 X55.363 Y178.425 E.02055
G1 X56.421 Y178.302 E.03341
G1 X57.467 Y178.1 E.03341
G1 X58.495 Y177.817 E.03341
G1 X59.498 Y177.457 E.03341
G1 X60.47 Y177.021 E.03341
G1 X61.406 Y176.512 E.03341
G1 X62.301 Y175.933 E.03341
G1 X63.148 Y175.287 E.03341
G1 X63.944 Y174.578 E.03341
G1 X64.683 Y173.81 E.03341
G1 X65.36 Y172.988 E.03341
G1 X65.568 Y172.693 E.0113
G1 X65.974 Y172.116 E.02211
G1 X66.518 Y171.2 E.03341
G1 X66.991 Y170.245 E.03341
G1 X67.389 Y169.257 E.03341
G1 X67.711 Y168.241 E.03341
G1 X67.954 Y167.204 E.03341
G1 X68.116 Y166.15 E.03341
G1 X68.198 Y165.088 E.03341
G1 X68.198 Y164.022 E.03341
G1 X68.116 Y162.96 E.03341
G1 X67.954 Y161.907 E.03341
G1 X67.711 Y160.869 E.03341
G1 X67.389 Y159.853 E.03341
G1 X66.991 Y158.865 E.03341
G1 X66.518 Y157.91 E.03341
G1 X65.974 Y156.994 E.03341
G1 X65.36 Y156.122 E.03341
G1 X64.683 Y155.3 E.03341
G1 X63.944 Y154.532 E.03341
G1 X63.675 Y154.293 E.0113
G1 X63.148 Y153.823 E.02211
G1 X62.301 Y153.177 E.03341
G1 X61.406 Y152.598 E.03341
G1 X60.47 Y152.089 E.03341
G1 X59.498 Y151.653 E.03341
G1 X58.495 Y151.293 E.03341
G1 X57.467 Y151.011 E.03341
G1 X56.421 Y150.808 E.03341
G1 X55.363 Y150.686 E.03341
G1 X54.708 Y150.661 E.02055
G1 X54.708 Y43.525 E3.35916
M204 S1000
G1 X55.055 Y43.664 F10800
;WIPE_START
M73 P1 R148
M73 Q1 S149
G1 F8640
G1 X57.999 Y43.524 E-.76
;WIPE_END
G1 E-.04 F2100
G1 Z.6 F720
G1 X189.635 Y43.955 F10800
G1 Z.2 F720
G1 E.8 F2100
M204 S800
;TYPE:Solid infill
;WIDTH:0.420235
G1 F1200
G1 X190.228 Y44.548 E.02631
G1 X190.228 Y45.082 E.01674
G1 X189.271 Y44.125 E.04246
G1 X188.737 Y44.125 E.01674
G1 X190.228 Y45.616 E.06614
G1 X190.228 Y46.149 E.01674
G1 X188.204 Y44.125 E.08981
G1 X187.67 Y44.125 E.01674
G1 X190.228 Y46.683 E.11349
G1 X190.228 Y47.216 E.01674
G1 X187.136 Y44.125 E.13716
G1 X186.603 Y44.125 E.01674
G1 X190.228 Y47.75 E.16084
G1 X190.228 Y48.284 E.01674
G1 X186.069 Y44.125 E.18452
G1 X185.536 Y44.125 E.01674
G1 X190.228 Y48.817 E.20819
G1 X190.228 Y49.351 E.01674
G1 X185.002 Y44.125 E.23187
G1 X184.468 Y44.125 E.01674
G1 X190.228 Y49.884 E.25554
G1 X190.228 Y50.418 E.01674
M73 Q1 S148
G1 X183.935 Y44.125 E.27922
G1 X183.401 Y44.125 E.01674
G1 X190.228 Y50.952 E.30289
G1 X190.228 Y51.485 E.01674
G1 X182.868 Y44.125 E.32657
G1 X182.334 Y44.125 E.01674
G1 X190.228 Y52.019 E.35025
G1 X190.228 Y52.552 E.01674
G1 X181.8 Y44.125 E.37392
G1 X181.267 Y44.125 E.01674
G1 X190.228 Y53.086 E.3976
G1 X190.228 Y53.62 E.01674
G1 X180.733 Y44.125 E.42127
G1 X180.2 Y44.125 E.01674
G1 X190.228 Y54.153 E.44495
G1 X190.228 Y54.687 E.01674
G1 X179.666 Y44.125 E.46862
G1 X179.132 Y44.125 E.01674
G1 X190.228 Y55.22 E.4923
G1 X190.228 Y55.754 E.01674
G1 X178.599 Y44.125 E.51597
G1 X178.065 Y44.125 E.01674
G1 X190.228 Y56.288 E.53965
G1 X190.228 Y56.821 E.01674
G1 X177.532 Y44.125 E.56333
G1 X176.998 Y44.125 E.01674
G1 X190.228 Y57.355 E.587
G1 X190.228 Y57.888 E.01674
G1 X176.464 Y44.125 E.61068
G1 X175.931 Y44.125 E.01674
G1 X190.228 Y58.422 E.63435
G1 X190.228 Y58.956 E.01674
G1 X175.397 Y44.125 E.65803
G1 X174.864 Y44.125 E.01674
G1 X190.228 Y59.489 E.6817
G1 X190.228 Y60.023 E.01674
G1 X174.33 Y44.125 E.70538
G1 X173.796 Y44.125 E.01674
G1 X190.228 Y60.556 E.72906
G1 X190.228 Y61.09 E.01674
G1 X173.263 Y44.125 E.75273
G1 X172.729 Y44.125 E.01674
G1 X190.228 Y61.624 E.77641
G1 X190.228 Y62.157 E.01674
G1 X172.196 Y44.125 E.80008
G1 X171.662 Y44.125 E.01674
G1 X190.228 Y62.691 E.82376
G1 X190.228 Y63.225 E.01674
G1 X171.128 Y44.125 E.84743
G1 X170.595 Y44.125 E.01674
G1 X190.228 Y63.758 E.87111
G1 X190.228 Y64.292 E.01674
G1 X170.061 Y44.125 E.89479
G1 X169.528 Y44.125 E.01674
G1 X190.228 Y64.825 E.91846
G1 X190.228 Y65.359 E.01674
G1 X168.994 Y44.125 E.94214
G1 X168.46 Y44.125 E.01674
G1 X190.228 Y65.893 E.96581
G1 X190.228 Y66.426 E.01674
G1 X167.927 Y44.125 E.98949
G1 X167.393 Y44.125 E.01674
G1 X190.228 Y66.96 E1.01316
G1 X190.228 Y67.493 E.01674
G1 X166.859 Y44.125 E1.03684
G1 X166.326 Y44.125 E.01674
G1 X190.228 Y68.027 E1.06052
G1 X190.228 Y68.561 E.01674
G1 X165.792 Y44.125 E1.08419
G1 X165.259 Y44.125 E.01674
G1 X190.228 Y69.094 E1.10787
G1 X190.228 Y69.628 E.01674
G1 X164.725 Y44.125 E1.13154
G1 X164.191 Y44.125 E.01674
G1 X190.228 Y70.161 E1.15522
G1 X190.228 Y70.695 E.01674
G1 X163.658 Y44.125 E1.17889
G1 X163.124 Y44.125 E.01674
M73 P1 R147
G1 X190.228 Y71.229 E1.20257
G1 X190.228 Y71.762 E.01674
G1 X162.591 Y44.125 E1.22624
G1 X162.057 Y44.125 E.01674
G1 X190.228 Y72.296 E1.24992
G1 X190.228 Y72.829 E.01674
G1 X161.523 Y44.125 E1.2736
G1 X160.99 Y44.125 E.01674
G1 X190.228 Y73.363 E1.29727
G1 X190.228 Y73.897 E.01674
G1 X160.456 Y44.125 E1.32095
G1 X159.923 Y44.125 E.01674
G1 X190.228 Y74.43 E1.34462
G1 X190.228 Y74.964 E.01674
M73 Q1 S147
G1 X159.389 Y44.125 E1.3683
G1 X158.855 Y44.125 E.01674
G1 X190.228 Y75.497 E1.39197
G1 X190.228 Y76.031 E.01674
G1 X158.322 Y44.125 E1.41565
G1 X157.788 Y44.125 E.01674
G1 X190.228 Y76.565 E1.43933
G1 X190.228 Y77.098 E.01674
G1 X157.255 Y44.125 E1.463
G1 X156.721 Y44.125 E.01674
G1 X190.228 Y77.632 E1.48668
G1 X190.228 Y78.165 E.01674
G1 X156.187 Y44.125 E1.51035
G1 X155.654 Y44.125 E.01674
G1 X190.228 Y78.699 E1.53403
G1 X190.228 Y79.233 E.01674
G1 X155.12 Y44.125 E1.5577
G1 X154.587 Y44.125 E.01674
M73 P2 R147
M73 Q2 S147
G1 X190.228 Y79.766 E1.58138
G1 X190.228 Y80.3 E.01674
G1 X154.053 Y44.125 E1.60506
G1 X153.519 Y44.125 E.01674
G1 X190.228 Y80.833 E1.62873
G1 X190.228 Y81.367 E.01674
G1 X152.986 Y44.125 E1.65241
G1 X152.452 Y44.125 E.01674
G1 X190.228 Y81.901 E1.67608
G1 X190.228 Y82.434 E.01674
G1 X151.919 Y44.125 E1.69976
G1 X151.385 Y44.125 E.01674
G1 X190.228 Y82.968 E1.72343
G1 X190.228 Y83.501 E.01674
G1 X150.851 Y44.125 E1.74711
G1 X150.318 Y44.125 E.01674
G1 X190.228 Y84.035 E1.77079
G1 X190.228 Y84.569 E.01674
M73 P2 R146
G1 X149.784 Y44.125 E1.79446
G1 X149.251 Y44.125 E.01674
G1 X190.228 Y85.102 E1.81814
G1 X190.228 Y85.636 E.01674
G1 X148.717 Y44.125 E1.84181
G1 X148.183 Y44.125 E.01674
G1 X190.228 Y86.169 E1.86549
G1 X190.228 Y86.703 E.01674
G1 X147.65 Y44.125 E1.88916
G1 X147.116 Y44.125 E.01674
M73 Q2 S146
G1 X190.228 Y87.237 E1.91284
G1 X190.228 Y87.77 E.01674
G1 X146.583 Y44.125 E1.93651
G1 X146.049 Y44.125 E.01674
G1 X190.228 Y88.304 E1.96019
G1 X190.228 Y88.838 E.01674
G1 X145.515 Y44.125 E1.98387
G1 X144.982 Y44.125 E.01674
G1 X190.228 Y89.371 E2.00754
G1 X190.228 Y89.905 E.01674
G1 X144.448 Y44.125 E2.03122
G1 X143.915 Y44.125 E.01674
G1 X190.228 Y90.438 E2.05489
G1 X190.228 Y90.972 E.01674
G1 X143.381 Y44.125 E2.07857
G1 X142.847 Y44.125 E.01674
G1 X190.228 Y91.506 E2.10224
G1 X190.228 Y92.039 E.01674
G1 X142.314 Y44.125 E2.12592
G1 X141.78 Y44.125 E.01674
G1 X190.228 Y92.573 E2.1496
G1 X190.228 Y93.106 E.01674
G1 X141.246 Y44.125 E2.17327
G1 X140.713 Y44.125 E.01674
G1 X190.228 Y93.64 E2.19695
G1 X190.228 Y94.174 E.01674
G1 X140.179 Y44.125 E2.22062
G1 X139.646 Y44.125 E.01674
M73 P2 R145
G1 X190.228 Y94.707 E2.2443
G1 X190.228 Y95.241 E.01674
M73 P3 R145
M73 Q3 S146
G1 X139.112 Y44.125 E2.26797
G1 X138.578 Y44.125 E.01674
G1 X190.228 Y95.774 E2.29165
G1 X190.228 Y96.308 E.01674
G1 X138.045 Y44.125 E2.31533
G1 X137.511 Y44.125 E.01674
M73 Q3 S145
G1 X190.228 Y96.842 E2.339
G1 X190.228 Y97.375 E.01674
G1 X136.978 Y44.125 E2.36268
G1 X136.444 Y44.125 E.01674
G1 X190.228 Y97.909 E2.38635
G1 X190.228 Y98.442 E.01674
G1 X135.91 Y44.125 E2.41003
G1 X135.377 Y44.125 E.01674
G1 X190.228 Y98.976 E2.4337
G1 X190.228 Y99.51 E.01674
G1 X134.843 Y44.125 E2.45738
G1 X134.31 Y44.125 E.01674
G1 X190.228 Y100.043 E2.48106
G1 X190.228 Y100.577 E.01674
G1 X133.776 Y44.125 E2.50473
G1 X133.242 Y44.125 E.01674
G1 X190.228 Y101.11 E2.52841
G1 X190.228 Y101.644 E.01674
G1 X132.709 Y44.125 E2.55208
G1 X132.175 Y44.125 E.01674
G1 X190.228 Y102.178 E2.57576
G1 X190.228 Y102.711 E.01674
M73 P3 R144
G1 X131.642 Y44.125 E2.59943
G1 X131.108 Y44.125 E.01674
G1 X190.228 Y103.245 E2.62311
G1 X190.228 Y103.778 E.01674
G1 X130.574 Y44.125 E2.64678
G1 X130.041 Y44.125 E.01674
G1 X190.228 Y104.312 E2.67046
G1 X190.228 Y104.846 E.01674
M73 Q3 S144
G1 X129.507 Y44.125 E2.69414
G1 X128.974 Y44.125 E.01674
G1 X190.228 Y105.379 E2.71781
G1 X190.228 Y105.913 E.01674
G1 X128.44 Y44.125 E2.74149
G1 X127.906 Y44.125 E.01674
G1 X190.228 Y106.446 E2.76516
G1 X190.228 Y106.98 E.01674
G1 X127.373 Y44.125 E2.78884
G1 X126.839 Y44.125 E.01674
M73 P4 R144
M73 Q4 S144
G1 X190.228 Y107.514 E2.81251
G1 X190.228 Y108.047 E.01674
G1 X126.306 Y44.125 E2.83619
G1 X125.772 Y44.125 E.01674
G1 X190.228 Y108.581 E2.85987
G1 X190.228 Y109.114 E.01674
G1 X125.238 Y44.125 E2.88354
G1 X124.705 Y44.125 E.01674
G1 X190.228 Y109.648 E2.90722
G1 X190.228 Y110.182 E.01674
M73 P4 R143
G1 X124.171 Y44.125 E2.93089
G1 X123.638 Y44.125 E.01674
G1 X190.228 Y110.715 E2.95457
G1 X190.228 Y111.249 E.01674
G1 X123.104 Y44.125 E2.97824
G1 X122.57 Y44.125 E.01674
M73 Q4 S143
G1 X190.228 Y111.782 E3.00192
G1 X190.228 Y112.316 E.01674
G1 X122.037 Y44.125 E3.0256
G1 X121.503 Y44.125 E.01674
G1 X190.228 Y112.85 E3.04927
G1 X190.228 Y113.383 E.01674
G1 X120.97 Y44.125 E3.07295
G1 X120.436 Y44.125 E.01674
G1 X190.228 Y113.917 E3.09662
G1 X190.228 Y114.45 E.01674
G1 X119.902 Y44.125 E3.1203
G1 X119.369 Y44.125 E.01674
G1 X190.228 Y114.984 E3.14397
G1 X190.228 Y115.518 E.01674
G1 X118.835 Y44.125 E3.16765
G1 X118.302 Y44.125 E.01674
G1 X190.228 Y116.051 E3.19132
G1 X190.228 Y116.585 E.01674
M73 P4 R142
G1 X117.768 Y44.125 E3.215
G1 X117.234 Y44.125 E.01674
M73 P5 R142
M73 Q5 S143
G1 X190.228 Y117.119 E3.23868
G1 X190.228 Y117.652 E.01674
